X: 2136
Q: "Strathspey."
M: C
L: 1/8
K: G
ug |\
e/e/e (e>g) e2(d>c) | vB<AA>uG vB<AA>uB |\
d/d/d (d>g) e2(d>g) | B<GG>A B<GG ::\
ud |\
vg>vaub>ua g>eg>B |
[1 d/d/d (d>g) e2(d>g) | B<GG>A B<GG :|\
[2 d>eg>d e<gd<g | B<GG>A B<GG |]


